X:22
T:17. Kat's Delight
C:Larry Mallette
R:double jig
M:6/8
Q:320
L:1/8
K:G
"Double Jig"
D|GBd gfe|dBAG2D|GBd gfd|e2fe2 D|
GBd gfe|dBAG2A|BGB AFA|DFAG2:|
A|~B3dBd|AFAG2D|GBde2f|~g3g2a|
~b3afa|gfed2c|BdB ~A3|DFAG2:|
B|efg edB|ABGE2D|EGA BAG|~A3ABd|
efg edB|ABGE2D|BGB AFA|DFAG2:|
A|BAG DEG|Bdfe2d|BAG DEG|~F3FGA|
BAG DEG|Bdfe2d|BGB AFA|DFAG2:|





